X: 1
T: Autumn Leaves
T: les Feuilles Mortes
C: Music: Joseph Kosma
C: English words: Johnny Mercer
%D:1947
Q: "Med. Swing"
Z: 2020 John Chambers <jc:trillian.mit.edu>
S: https://www.facebook.com/groups/Fiddletuneoftheday/ 2020-08-29
S: https://www.facebook.com/groups/Fiddletuneoftheday/photos/
S: https://www.facebook.com/photo/?fbid=1701948639956109&set=gm.1859435570866206
M: C
L: 1/4
K: Gm
%%continueall
G AB "^A"|| "Cm7"e4- | "F7"eF GA | "BbM7(Bm7)"d2 "(E7)"d2- | "BbM7(Eb7)"dE "(Eb7)"FG |
w: The fall-ing leaves_ drift by my win-dow_ The au-tumn
"Am7(b5)"c4- | "D7"cD =E^F | "Gm"B4 | zG AB |
w: leaves_ of red and gold; I see your
"Cm7"e4- | "F7"eF GA | "BbM7(Bm7)"d2 "(E7)"d2- | "BbM7(Eb7)"dE "(Eb7)"FG |
w: lips,_ the sum-mer kiss-es,_ The sun-burned
"Am7(b5)"c4- | "D7"cA cB | "Gm"G4 | z2 ^FG "^B"||
w: hands_ I used to hold.  Since you
"Am7(b5)"AD A2- | "D7"AA GA | "Gm"B4- | BB AB |
w: went a-way_ the days grow long,_ And soon I'll
"Cm7"c4- | "F7"cF fe | "BbM7"d4- | "EbM7"d2 ^cd |
w: hear_ old win-ter's song,_ But I
"Am7(b5)"ee =cc | "D7"A3 e | "Gm"d2 "C9(D7/F#)"d2- | "Fm7"d2 "Bb7"G2 |
w: miss you most of all, my dar-ling_ When
"EbM7"c3 B | "Am7(b5)"A2 "D7(#5)"BD | "Gm"G4 | "(G7)"z4 |]
w: au-tumn leaves start to fall.
